public/assets/techs/bootstrap.svg

<svg width="20" height="20" viewBox="0 0 20 20" fill="none" xmlns="http://www.w3.org/2000/svg">
<g clip-path="url(#clip0_310_30)">
<path fill-rule="evenodd" clip-rule="evenodd" d="M15 1.25H5C4.00544 1.25 3.05161 1.64509 2.34835 2.34835C1.64509 3.05161 1.25 4.00544 1.25 5V15C1.25 15.9946 1.64509 16.9484 2.34835 17.6517C3.05161 18.3549 4.00544 18.75 5 18.75H15C15.9946 18.75 16.9484 18.3549 17.6517 17.6517C18.3549 16.9484 18.75 15.9946 18.75 15V5C18.75 4.00544 18.3549 3.05161 17.6517 2.34835C16.9484 1.64509 15.9946 1.25 15 1.25V1.25ZM5 0C3.67392 0 2.40215 0.526784 1.46447 1.46447C0.526784 2.40215 0 3.67392 0 5L0 15C0 16.3261 0.526784 17.5979 1.46447 18.5355C2.40215 19.4732 3.67392 20 5 20H15C16.3261 20 17.5979 19.4732 18.5355 18.5355C19.4732 17.5979 20 16.3261 20 15V5C20 3.67392 19.4732 2.40215 18.5355 1.46447C17.5979 0.526784 16.3261 0 15 0L5 0Z" fill="#EEEEEE"/>
<path fill-rule="evenodd" clip-rule="evenodd" d="M10.6713 15H6.32751V4.43124H10.5763C12.56 4.43124 13.755 5.44249 13.755 7.06874C13.755 8.17374 12.9425 9.16249 11.9013 9.33874V9.46374C13.33 9.60999 14.2813 10.6275 14.2813 12.005C14.2813 13.865 12.9263 15 10.6713 15ZM7.96876 5.82249V8.90624H9.91627C11.3663 8.90624 12.1213 8.37124 12.1213 7.36874C12.1213 6.39374 11.41 5.82249 10.195 5.82249H7.96876V5.82249ZM10.3413 13.6087H7.96876V10.2025H10.2463C11.7913 10.2025 12.605 10.7812 12.605 11.8875C12.605 13.0075 11.8213 13.6087 10.3413 13.6087V13.6087Z" fill="#EEEEEE"/>
</g>
<defs>
<clipPath id="clip0_310_30">
<rect width="20" height="20" fill="white"/>
</clipPath>
</defs>
</svg>

<svg xmlns="http://www.w3.org/2000/svg" width="20" height="20" fill="none" xmlns:v="https://vecta.io/nano"><g clip-path="url(#A)" fill-rule="evenodd" fill="#8f75fc"><path d="M15 1.25H5A3.75 3.75 0 0 0 1.25 5v10A3.75 3.75 0 0 0 5 18.75h10A3.75 3.75 0 0 0 18.75 15V5A3.75 3.75 0 0 0 15 1.25zM5 0a5 5 0 0 0-5 5v10a5 5 0 0 0 5 5h10a5 5 0 0 0 5-5V5a5 5 0 0 0-5-5H5zm5.671 15H6.328V4.431h4.249c1.984 0 3.179 1.011 3.179 2.637 0 1.105-.812 2.094-1.854 2.27v.125c1.429.146 2.38 1.164 2.38 2.541 0 1.86-1.355 2.995-3.61 2.995zM7.969 5.823v3.084h1.947c1.45 0 2.205-.535 2.205-1.537 0-.975-.711-1.546-1.926-1.546H7.969zm2.372 7.786H7.969v-3.406h2.277c1.545 0 2.359.579 2.359 1.685 0 1.12-.784 1.721-2.264 1.721z"/></g><defs><clipPath id="A"><path fill="#fff" d="M0 0h20v20H0z"/></clipPath></defs></svg>
